X:1
T:Ingiustissimo Amor
T:Ingiustissimo Amor
T:Girolamo Scotto
T:Source : Secondo Libro delle Muse a tre voci---Venetia---G.Scotto---1562. Editor : André Vierendeels (03/05/16).
T:Notes : Original clefs : C3, C3, F4 Editorial accidentals above the staff Original note values have been halved Text : Ludovico Ariosto (Orlando furioso) "Primi toni" 
T:-natural
T:©
T:©
T:©
T:©
T:©
T:©
T:©
C:Girolamo Scotto
Z:©
%%score [ 1 2 3 ]
L:1/8
Q:1/4=107
M:2/2
K:F
V:1 treble-8 nm="Tenor 1" snm="T 1"
V:2 treble-8 nm="Tenor 2" snm="T 2"
V:3 bass nm="Bass" snm="B"
V:1
 G4 c4- | c2 B2 c4 | d4 e4- | e2 d2 c2 c2 | B3 A G4- | G8 | z2 d2 B3 c | de f4 e2 | d6 cB | A6 G2 | %10
w: In- giu-|* stis- si-|mo A-|* mor per- che|si ra- ro,|_|per- che _|_ _ _ si|ra- * *||
 B8 | A2 d2 d2 d2 | c2 c2 d2 f2 | e2 d4 c2 | d2 f4 e2 | fedc B2 d2- | d2 c2 d2 f2 | e2 d3 c/B/ c2 | %18
w: |ro, cor- ri- spon-|den- ti fai no-|stri de- *|si- * *|ri, _ _ _ _ no-|* stri de- si-||
 d2 d2 d2 c2 | d4 d2 f2 | f2 f2 f2 d2- | de f4 e2 | d4 z4 | z4 z2 d2 | d2 c2 B2 B2 | A2 c2 c2 B2 | %26
w: ri? On- de, per-|fi- do, av-|vien che t'è si|_ _ ca- *|ro|il|dis- cor- de vo-|ler, il dis- cor-|
 A3 B c2 B2 | G3 A Bc d2 | e2 d3 c/B/ c2 | d2 f2 f2 f2 | e2 e2 d3 e | f2 B2 c2 d2- | dcBA GABc | %33
w: de vo- ler ch'in|duo _ _ _ _|_ cor _ _ mi-|ri? Gir non mi|lass' al fa- cil|gua- do e chia-||
 de f3 edc | B3 c d2 A2 | B2 B2 A4 | G2 c4 B2 | A2 G4 F2 | G2 B2 B2 B2 | c2 d2 G3 A | B2 AB cd e2 | %41
w: |* * ro, e|nel piu cie-|co e mag-|gior fon- do|ti- ri, e nel|piu cie- co'e mag-|gior fon- * * * *|
 fedc B2 G2 | A4 G4 | G2 G2 B2 B2 | A2 d2 c2 c2 | d6 cB | A2 c2 B4 | A4 z2 d2 | d2 c2 d2 e2 | %49
w: * * * * di ti-|ri, da|che de- si- a'il|mi- o'a- mor tu|mi- * *|* ri- chia-|mi, e|chi m'in o- dio|
 f6 e2 | d2 B2 B2 A2 | B2 c2 d2 G2 | B2 c2 B2 A2 | d4 c2 A2 | B4 A4 | z2 G2 G2 F2 | G2 A2 B4- | %57
w: voi, e|chi ma'in o- dio|vo- * i ch'a-|do- ri'et a- *|* mi, et|a- mi,|et chi ma'in|o- dio vo-|
 B2 c2 G2 c2 | d2 e2 fedc | B2 c2 d2 f2- | f2 _e2 d4 | c2 d4 c2 | B2 A2 B4 | A4 B2 G2 | G4 G3 A | %65
w: * * i, ch'a-|dor' et a- * * *||* * mi,|ch'a- dor' et|a- * *|* mi ch'a-|dor' et _|
 Bc d4 c2 | d8 |] %67
w: _ _ a- *|mi.|
V:2
 z8 | z8 | G4 c4- | c2 B2 A2 A2 | G3 F E4- | E2 D2 E4 | F4 G4 | A3 B c2 G2- | GF F4 E2 | F4 E4 | %10
w: ||In- giu-|* stis- si- mo|A- * mor|_ per- che|si ra-|ro, _ _ per-|* * che si|ra- ro,|
 z2 D2 G4- | G2 F2 G4 | A4 B3 A | G2 F2 E4 | D2 d4 cB | A4 z4 | z8 | z2 D2 G4- | G2 F2 G2 A2 | %19
w: cor- ri-|* spon- den-|ti fai _|_ no- stri|de- si- * *|ri,?||On- de,|_ per- fi- do,|
 B6 A2 | A4 B4 | A4 G4 | F3 E D2 F2- | FG A3 GFE | D2 F3 E/D/ E2 | F2 A2 A2 G2 | F2 F2 E2 D2 | %27
w: av- vien|che tè|si ca-|ro, si ca- *|||ro, il dis- cor-|de vo- ler ch'in|
 E3 F G4- | G2 F2 G2 G2 | z2 A2 A2 A2 | c2 c2 B4- | B2 AG A2 B2 | G3 F E4 | z2 D2 F2 F2 | %34
w: duo _ _|_ cor mi- ri?|Gir non mi|lass' al fa-|* cil _ gua- do'e|chia- * ro,|al fa- cil|
 G2 G2 AGFE | D2 G4 F2 | E4 D4 | z8 | z2 D2 G2 G2 | F2 F2 E3 F | G2 F2 E4 | D2 F4 E2 | F4 E4 | %43
w: guad' e chia- * * *||* ro,||e nel piu|cie- co'e mag- *|* gior fon-|* to ti-|ri, da|
 E2 E2 D2 D2 | F2 F2 E2 F2 | F2 F2 G2 DE | FG A4 G2- |"^#" G2 F2 G4 | z2 A2 B2 c2 | d6 c2 | %50
w: che de- si- a'il|mi- o'a- mor tu|mi ri- chia- * *||* * mi,|e chi ma'in|o- dio|
 B2 G2 G2 F2 | G2 A2 B4- | B2 A2 G2 F2- | F2 ED E2 F2 |"^#" D2 G4 F2 | G4 z2 D2 | E2 F2 G3 F | %57
w: voi, e chi ma'in|o- dio voi|_ ch'a- do- *|* * * * ri'et|a- * *|mi, et|chi ma'in o- dio|
 G2 A2 B2 F2- | F2 c2 B2 A2 | G4 A4 | z2 G2 G2 G2 | A2 B3 A G2- | G2 F2 G4 | F2 D4 E2- | %64
w: voi ch'a- dor' et|_ a- * *|* mi,|et chi ma'in|o- di- o voi|_ ch'a- dor'|et a- *|
 E2 D2 E3 F | G3 F E4 | ^F8 |] %67
w: ||mi.|
V:3
 z8 | z8 | z8 | z8 | G,,4 C,4- | C,2 B,,2 C,4 | D,4 E,4 | D,4 C,2 C,2 | B,,3 A,, G,,4 | F,,4 C,4 | %10
w: ||||In- giu-|* stis- si-|mo'A- mor,|per- che si|ra- * *|ro, per-|
 B,,3 A,, G,,2 G,,2 | D,4 G,,4 | z8 | z8 | z2 D,2 G,4 | F,4 G,4 | A,4 B,3 A, | G,2 F,2 E,4 | %18
w: che _ _ si|ra- ro,|||cor- ri-|spon- den-|ti fai _|_ no- stri|
 D,3 C, B,,2 A,,2 | G,,2 G,4 F,2 | D,4 z2 G,,2 | D,4 z2 G,,2 | B,,6 A,,2 | B,,2 C,2 D,3 C, | %24
w: de- * * si-||ri? On-|de, per-|fi- do,|av- vien t'è _|
 B,,2 A,,2 G,,4 | F,,4 z4 | z2 A,,2 A,,2 B,,2 | C,2 C,2 G,,2 B,,2 |"^b" C,2 D,2 E,4 | D,8 | %30
w: _ si ca-|ro,|il dis- cor-|de vo- ler ch'in|duo cor mi-||
 C,4 z4 | z8 | z2 G,,2 C,2 C,2 | B,,2 B,,2 D,2 D,2 |"^b" E,4 D,4 | G,,4 D,4 | z2 A,,2 B,,2 B,,2 | %37
w: ri?||Gir non mi|lass' al fa- cil|guad' e|chia- ro,|e nel piu|
 C,2 B,,2 A,,4 | G,,6 G,,2 | A,,2 B,,2 C,4 | G,,2 D,4 C,2 | B,,3 A,, G,,4 | F,,4 C,4 | %43
w: cie- co e|mag- gior|fon- do ti-|ri, fon- di|ti- * *|ri, da|
 C,2 C,2 G,,2 G,,2 | D,2 D,2 A,,2 A,,2 | B,,2 B,,2 G,,4 | F,,2 F,,2 G,,A,,B,,C, | D,4 G,,4 | z8 | %49
w: che de- si- a'il|mi- o'a- mor tu|mi- ri chia-|mi, ri- chia- * * *|* mi,||
 z8 | z8 | z4 G,,4 | G,,2 F,,2 G,,2 A,,2 | B,,2 B,,2 A,,2 F,,2 | G,,A,,B,,C, D,4 | G,,4 z4 | %56
w: ||e|chi ma'in o- dio|voi ch'a- do- ri'et-|a- * * * *|mi,|
 z4 G,,4 | G,,2 F,,2 G,,2 A,,2 | B,,2 C,2 D,4 |"^b" E,4 D,4 |"^#" C,4 G,,4 | z2 G,,2 B,,2 C,2 | %62
w: e|chi ma'in o- dio|voi ch'a- dor'|et a-|* mi,|e chi ma'in|
 D,4 G,,4 | D,4 G,,2 C,2- | C,2 B,,2 C,4 | G,,4 A,,4 | D,8 |] %67
w: o- dio|voi ch'a- dor'|_ et a-||mi.|

